X:1
T:A Little Romance
T:A Little Romance
T:Album for the Young
T:Schumann, Op. 68, No. 19
C:Schumann, Op. 68, No. 19
%%score { ( 1 3 ) | ( 2 4 ) }
L:1/8
Q:1/4=130
M:4/4
K:C
V:1 treble nm="Piano" snm="Pno."
V:3 treble 
V:2 bass 
V:4 bass 
V:1
!p!"^Nicht schnell" !3!E2 | (!4!F3 !5!A !3!E2)!<(! !4!A2!<)! | (!5!c3 !45!B !4!A2) !3!E2 | %3
 (F3 A E2)!<(! (!2!A!4!c!<)! |!>(! e6)!>)!!p! !1!E2 | (F3 A E2)!<(! A2!<)! | (c3 B A2) E2 | %7
 (F3 A E2)!<(! (Ac!<)! |!>(! e6)!>)! ||!f! !4![^GBe]2 | [A^ca]3 [Aca] !3![Be]2 [Be]2 | %11
 [A^ca]3 [Aca] [Be]2!f! !4![EA=c]2 |!sfz!!>(! (=F3 !4!A!>)! !2!E2) !4!A2 | %13
 (!5!c3 !45!B !4!A2) !3!E2 | (!4!F3 A) (!2!E!5!A) (!3!A!5!c) |!pp! (!5!c3 !4!B !3!A2)!f! [^GBe]2 | %16
 [A^ca]3 [Aca] [Be]2 [Be]2 | [A^ca]3 [Aca] [Be]2!f! [EA=c]2 |!sfz!!>(! (=F3 A!>)! E2) A2 | %19
 (c3 B A2) E2 | (F3 A) (EA) (Ac) |!pp! (c3 B A2) |] %22
V:2
 !2!E,2 | (!12!F,3 !1!A, !2!E,2) !1!A,2 | (!1!C3 !2!B, !1!A,2) !2!E,2 | (F,3 A, E,2) (!1!A,!2!C | %4
 !1!E6) !2!E,2 | (F,3 A, E,2) A,2 | (C3 B, A,2) E,2 | (F,3 A, E,2) (A,C | E6) || [E,B,E]2 | %10
!ped! !5![^F,A,^C]3 [F,A,C]!ped-up! !4![^G,B,E]2 [G,B,E]2 | %11
!ped! [^F,A,^C]3 [F,A,C]!ped-up! [^G,B,E]2 !3![A,=C]2 | (!4!=F,3 A, E,2) !2!A,2 | %13
 (!1!C3 !2!B, !1!A,2) !2!E,2 | (!12!F,3 A,) (!3!E,!1!A,) (!2!A,!1!C) | %15
 (!1!C3 !2!B, !1!A,2) [E,B,E]2 |!ped! [^F,A,^C]3 [F,A,C]!ped-up! [^G,B,E]2 [G,B,E]2 | %17
!ped! [^F,A,^C]3 [F,A,C]!ped-up! [^G,B,E]2 [A,=C]2 | (=F,3 A, E,2) A,2 | (C3 B, A,2) E,2 | %20
 (F,3 A,) (E,A,) (A,C) | (C3 B, A,2) |] %22
V:3
 x2 | z [A,D] [A,D] z z [A,C] z [CE] | z!>(! [DE] [DE]2!>)! z [CE] z [A,C] | %3
 z [A,D] [A,D] z z [A,C] z E | z !2!!3![^GB][GB]!1!!4![Ac] !2!!3![GB]2 x2 | %5
 z [A,D] [A,D] z z [A,C] z [CE] | z!>(! [DE] [DE]2!>)! z [CE] z [A,C] | %7
 z [A,D] [A,D] z z [A,C] z E | z [^GB][GB][Ac] [GB]2 || x2 | x8 | x8 | !5![DB]4 C4 | %13
 z [DE] [DE]2 z [CE] z [A,C] | z"_dim." [A,D] [A,D] z z C z E | z2 [DE]2 C2 x2 | x8 | x8 | %18
 [DB]4 C4 | z [DE] [DE]2 z [CE] z [A,C] | z"_dim." [A,D] [A,D] z z C z E | z2 [DE]2 C2 |] %22
V:4
 x2 | z!p! [A,,D,] !5!!3![A,,D,] z z [A,,C,] z !5!C, | %2
 z !5!!3![E,^G,] [E,G,]2 z [A,,E,] z [A,,C,] | z [A,,D,] [A,,D,] z z [A,,C,] z E, | %4
 z !5!!2![E,B,][E,B,]!3!!2![A,C] !5!!2![E,B,]2 z2 | z!p! [A,,D,] [A,,D,] z z [A,,C,] z C, | %6
 z [E,^G,] [E,G,]2 z [A,,E,] z [A,,C,] | z [A,,D,] [A,,D,] z z [A,,C,] z E, | %8
 z [E,B,][E,B,][A,C] [E,B,]2 || x2 | x8 | x8 | [D,A,B,]4 !5!!2![E,A,]4 | %13
 z !5!!3![E,^G,] [E,G,]2 z [A,,C,] z !4!C, | z !4!D, D, z z2 z E, | z2 !5!!3![E,^G,]2 A,,2 x2 | %16
 x8 | x8 | [D,A,B,]4 [E,A,]4 | z [E,^G,] [E,G,]2 z [A,,C,] z C, | z D, D, z z2 z E, | %21
 z2 [E,^G,]2 A,,2 |] %22

